X:1
T:Title
%%score { ( 1 3 ) | ( 2 4 ) }
L:1/8
M:4/4
K:F
V:1 treble nm="Grand Piano"
V:3 treble 
V:2 bass 
V:4 bass 
V:1
 z4 z2[Q:1/4=104] [FA]>[GB] | [Ac]2 A>G F2 F>G | A2 F>D C2 F>G | A2 A>[CGB] [CAc]2 [CFA]>[CFA] | %4
 [CEG]6 [CFA]>[CGB] | [CAc]2 [CFA]>[B,EG] [A,F]2 [A,CF]>[B,CG] | %6
 [CA]2 [CF]>[CE][K:bass] [F,B,D]2 [F,DF]>[K:treble][^CG] | [CA]2 [FA]>[DB] [Ec]2 G>A |[M:3/4] F6 | %9
[M:1/4] E>[DF] |[M:4/4] [EG]2 [GB]>[FA] [EG]2 [DF]>[EG] | [FA]6 z2 | %12
 [CAc]2 [CFA]>[CEG] [CF]2 [B,CE]>[A,CF] | [EG]6 z2 | [Ac]2 A>G F2 F>G | %15
 A2 [CF]>[CE] [B,D]2 [DF]>[^CG] | [CA]2 [FA]>[DB] [Ec]2 [EG]>[EA] |[M:3/4] F6 |] %18
V:2
 z4 z2 [F,C]>[F,C] | [F,C]2 [F,C]>[F,B,C] [F,A,C]2 [F,A,C]>[F,B,C] | %2
 [F,C]2 [F,A,C]>[F,B,] [F,A,]2 [F,A,C]>[F,B,C] | [F,CF]2 [F,CF]>F, F,2 F,>F, | C,6 F,>F, | %5
 F,2 F,>F, F,2 F,>F, | F,2 A,,>A,, B,,2 B,,>[B,,F,] | [C,F,]2 [C,C]>[C,B,] [C,G,]2 [C,B,C]>[C,C] | %8
[M:3/4] [F,A,C]6 |[M:1/4] [C,G,C]>[C,G,] |[M:4/4] [C,C]2 [C,C]>[C,C] [C,C]2 [C,C]>[C,C] | %11
 [F,C]2 F,>F, F,2 F,>F, | F,2 F,>G, A,2 G,>F, | C,2 C,>C, C,2 [F,CF]>[F,C] | %14
 [F,C]2 [F,CF]>[F,B,E] [F,A,]2 [F,A,]>[F,B,E] | [F,CF]2 [A,,F,]>[A,,F,] [B,,F,]2 [B,,F,]>[B,,F,] | %16
 [C,F,]2 [C,C]>[C,B,] [C,G,]2 [C,B,]>[C,C] |[M:3/4] F,2- [F,-B,][F,-B,] [F,A,]2 |] %18
V:3
 x8 | x8 | x8 | x8 | x8 | x8 | x4[K:bass] x7/2[K:treble] x/ | x8 |[M:3/4] x6 |[M:1/4] x2 | %10
[M:4/4] x8 | z2 C>C C2 [CFA]>[CGB] | x8 | C2 C>C C2 A>[GB] | x8 | x8 | x8 |[M:3/4] z _E D^C =C2 |] %18
V:4
 x8 | x8 | x8 | x8 | x8 | x8 | x8 | x8 |[M:3/4] x6 |[M:1/4] x2 |[M:4/4] x8 | x8 | x8 | x8 | x8 | %15
 x8 | x8 |[M:3/4] A,2 z2 z2 |] %18

